X:1
T:Ich danke dem Herrn von ganzem Herzen
T:Ernst Richter
T:Ich danke dem Herrn von ganzem Herzen
T:Op. 32
T:CPDL - Creative Commons Attribution Non Commercial 3.0
T:CPDL - Creative Commons Attribution Non Commercial 3.0
T:CPDL - Creative Commons Attribution Non Commercial 3.0
T:CPDL - Creative Commons Attribution Non Commercial 3.0
T:CPDL - Creative Commons Attribution Non Commercial 3.0
T:CPDL - Creative Commons Attribution Non Commercial 3.0
T:CPDL - Creative Commons Attribution Non Commercial 3.0
T:CPDL - Creative Commons Attribution Non Commercial 3.0
T:CPDL - Creative Commons Attribution Non Commercial 3.0
T:CPDL - Creative Commons Attribution Non Commercial 3.0
T:CPDL - Creative Commons Attribution Non Commercial 3.0
T:CPDL - Creative Commons Attribution Non Commercial 3.0
T:CPDL - Creative Commons Attribution Non Commercial 3.0
C:Ernst Richter
Z:CPDL - Creative Commons Attribution Non Commercial 3.0
%%score [ 1 2 3 4 ]
L:1/8
Q:1/4=110
M:3/4
K:C
V:1 treble-8 nm="Tenor\n1"
V:2 treble-8 nm="Tenor\n2"
V:3 bass nm="Bass\n1"
V:4 bass nm="Bass\n2"
V:1
"^Moderato"!mf! c2 | c2 c2 d2 | e4 c2 | f4 e2 | ed c2 e2 | (A2 d2) c2 | (B2 c2) d2 | e2 f2 e2 | %8
w: Ich|dan- ke dem|Herrn von|gan- zem|Her- * zen und|rüh- * me|sei- * nen|hei- li- gen|
 e2 d2 z2 | z6 | z4 e2 | g2 d2 f2 | ed c2 z2 | z6 | z4 c2 | e2 B2 d2 | cB A2!f!"^poco" c2 | %17
w: Na- men;||denn|er ist barm-|her- * zig,||denn|er ist barm-|her- * zig, denn|
 d2 d2 e2 | f2 f2 f2 |!>(! (c4 d2)!>)! | e4!p! e2 | !>!e6 | d4 d2 | !>!d6 | c4 z2 | %25
w: er ist barm-|her- zig und|gnä- *|dig, ge-|dul-|dig, ge-|dul-|dig|
"^poco"!f! B4 B2 | (f2 d2) B2 |!>(! c6 | B4!>)!!f! c2 | c2 c2 d2 | e4 c2 | f4 e2 | ed c2 e2 | %33
w: und von|gro- * ßer|Gü-|te. Ich|dan- ke dem|Herrn von|gan- zem|Her- * zen und|
 (A2 d2) c2 | (B2 c2) d2 | e2 f2 e2 | e2 d2!f! d2 | e2 e2 e2 | c4 c2 |"^cresc." f2 f2 f2 | d4 G2 | %41
w: rüh- * me|sei- * nen|hei- li- gen|Na- men, ich|dan- ke dem|Herrn, ich|dan- ke dem|Herrn von|
 (g2 f2) e2 | (e2 d2) A2 |"^dim." (c6- | c4 B2) | c4!p! c2 |[Q:1/4=120]"^riten."!<(! c2 c2 d2!<)! | %47
w: gan- * zem,|gan- * zem|Her-||zen. Ich|dan- ke dem|
!>(! !fermata!e4!>)! z ||[K:F][M:2/4][Q:1/4=60]"^Andante sostenuto""^Solo""^dolce" c | c3 f | %50
w: Herrn.|In|sei- ner|
!>(! (f2 e)!>)!d | c>^c dB | =c>B A"^cresc."A/>F/ | (c2 d)e | f2 ed |!f! c>c"^dim." c=B | c2 z2 | %57
w: Hand _ ist,|was die Er- de|brin- * get; und die|Höh‘n _ der|Ber- ge, der|Ber- ge sind auch|sein.|
 z4 | z!f!"^poco" g g>g | cc de | fc fe | d3 _d | c2 cc | fe dc | BB/G/ gf/f/ | fe z c | ae f^c | %67
w: |Sein ist das|Meer und er hat|es ge- macht, und|sei- ne|Hän- de, und|sei- ne Hän- de|ha- ben das Trock- ne be-|rei- tet, das|Trock- * ne, das|
!<(! d2!<)! d f/e/ |!>(! d2 ^c!>)!"^dolce"=c | c2- c/d/ e/f/ |!>(! (f2 e)!>)!d | c>^c dB | %72
w: Trock- ne be- *|rei- tet. In|sei- * * ner *|Hand _ ist,|was die Er- de|
 =c>B A"^cresc."c/>A/ | (d2 e)f | g2 d=B |!f! c>f"^dim." fe | f4- | f!f!f/>d/ gf | %78
w: brin- * get; und die|Höh‘n _ der|Ber- ge, der|Ber- ge sind auch|sein.|* und die Höh‘n der|
"^cresc." (e2 f) a/g/ |!>(! f3 e!>)! | f2 z!p!!<(! c/>c/ | _d/>d/!<)! f2 _e/>d/ |!>(! c4!>)! | %83
w: Ber- * ge *|sind auch|sein, und die|Höh‘n der Ber- ge sind|auch|
 !fermata!c2 z ||[M:4/4][Q:1/4=120]"^Grave""^Tutti" z8 | z8 |!f!"^poco" d3 ^c d2 e2 | ^c4 z4 | z8 | %89
w: sein.|||be- tet an den|Herrn!||
 z8 |!f!"^poco" g3 ^f g2 a2 | ^f4 z4 | z2!f! =f2 f2 f2 |!>(! f4 e2!>)! z2 | z2 a2 a2 a2 | %95
w: |be- tet an den|Herrn;|denn sei- ne|Grö- ße,|denn sei- ne|
!>(! a4 ^g2!>)! z2 | z2 a2 =c2 d2 |!>(! e8!>)! | !fermata!e4 z4 || %99
w: Grö- ße|ist un- aus-|sprech-|lich!|
[K:C][M:2/2][Q:1/4=180]"^Allegro moderato" z8 | z8 | z8 | G4 G2 G2 | c4 z2 B2 | e2 A2 d2 c2 | %105
w: |||Prei- set ihn|laut! von|nun an bis in|
 (B2 A2 G2 d2- | d2 c2 f4-) | f4 e4 | d2 d2 g4- | g2 f2 e2 d2 | c2 d2 e2 z2 | z2 e2 ^f2 g2 | %112
w: E- * * *||* wig-|keit, von nun|_ an bis in|E- wig- keit,|von nun an|
 g4 ^f4 | g6 =f2 | e2 d2 c2 e2 | e4 ^d4 | e6 e2 | ^d4 z4 | z8 | B4 B2 B2 | e4 z2 =d2 | %121
w: bis in|E- wig-|keit, von nun an|bis in|E- wig-|keit!||Prei- set ihn|laut! von|
 g2 ^c2 ^f2 e2 | ^d2 ^c2 B2"^cresc." ^f2 | ^f2 B2 e2 =d2 | ^c2 B2 A2 e2 | (e2 A2 d2) =c2 | %126
w: nun an bis in|E- wig- keit, von|nun an bis in|E- wig- keit, in|E- * * wig-|
 B2 z2 z4 |!f! c4 c2 c2 | f4 z2 d2 | g2 d2 g2 f2 | e2 d2 c2 z2 | z8 | z4 z2 d2 | g2 f2 e2 d2 | %134
w: keit!|Prei- set ihn|laut! von|nun an bis in|E- wig- keit!||von|nun an bis in|
 (c2 e2 a2 g2 | f8- | f2 d2 g2) f2 | e2!f! c2 c2 c2 |!sfz! g4 z2 e2 | a2 e2 a2 g2 | f2 e2 d2 A2 | %141
w: E- * * *||* * * wig-|keit! Prei- set ihn|laut! von|nun an bis in|E- wig- keit, von|
 c2 G2 c2 e2 | d6 d2 | c4 z4 | z2!f! f2 f2 f2 | e4 z4 | z2 f2 f2 f2 | e2 e2 e2 e2 | a8- | (a8 | %150
w: nun an bis in|E- wig-|keit!|Prei- set ihn|laut!|Prei- set ihn|laut! Prei- set ihn|laut!|_|
 g6) e2 | d2 a2 g2 f2 | e2 g2 f2 d2 | e8- | (e8 | d8-) | d6 d2 | c4 z4 |!f! d8 | e4 z4 |!ff! g16 | %161
w: * von|nun an bis in|E- wig- keit, in|E-|||* wig-|keit!|A-|men,|A-|
 c4 z4 |] %162
w: men!|
V:2
!mf! G2 | G2 A2 B2 | c4 c2 | c4 c2 | B2 c2 c2 | A4 A2 | G2 A2 B2 | c2 B2 c2 | c2 B2 z2 | z6 | %10
w: ||||||||||
 z4 c2 | d2 c2 B2 | c2 c2 A2 | c2 B2 A2 | e2 E2 z2 | z6 | z4!f!"^poco" c2 | c2 B2 ^c2 | d2 d2 d2 | %19
w: ||* * denn|er ist barm-|her- zig|||||
!>(! (A4 B2)!>)! | c4!p! c2 | !>!c6 | B4 B2 | !>!B6 | A4 z2 |"^poco"!f! A4 A2 | A4 A2 |!>(! A6 | %28
w: |||||||||
 ^G4!>)!!f! =G2 | G2 A2 B2 | c4 c2 | c4 c2 | B2 c2 c2 | A4 A2 | (G2 A2) B2 | c2 B2 c2 | %36
w: ||||||||
 c2 B2!f! B2 | B2 B2 B2 | A4 c2 |"^cresc." d2 d2 d2 | B4 G2 | (G2 B2) c2 | A4 A2 |"^dim." G6- | %44
w: * * ich|dan- ke dem|Herrn, ich|dan- ke dem|Herrn von|gan- * zem,|gan- zem|Her-|
 G6 | G4!p! G2 |!<(! A2 A2 B2!<)! |!>(! !fermata!c4!>)! z ||[K:F][M:2/4] z | z"^dolce" A cc | %50
w: |zen. Ich|dan- ke dem|Herrn.||In sei- ner|
!>(! B3!>)! B | B>B BG | A>G F z | z"^cresc." G/>E/ =Bc | Ad cA |!f! G>G"^dim." GG | G2 z2 | %57
w: Hand ist,|was die Er- de|brin- * get;|und die Höh‘n der|Ber- * ge, der|Ber- ge sind auch|sein.|
 z!f!"^poco" d d>d | Bc dB | BG AB | cA Bc | cB/(A/ B2-) | BA/G/ AG | F G/A/ Bc | z4 | z G cB | %66
w: Sein ist das|Meer und er hat|es ge- macht, und|er hat es ge-|macht, _ _ _|_ _ _ _ und|sei- ne * Hän- de,||und sei- ne|
 A3 G |!<(! F^F/F/!<)! G^G/G/ |!>(! A2 A!>)! z | z"^dolce" A cc |!>(! B3!>)! B | B>B BG | A>G F z | %73
w: Hän- de|ha- ben das Trock- ne be-|rei- tet.|In sei- ner|Hand ist,|was die Er- de|brin- * get;|
 z"^cresc." B/>G/ cA | d2 d_A |!f! =A>c"^dim." _BB | Ad/>B/ _e2- | e!f!d dd |"^cresc." cB Ad | %79
w: und die Höh‘n der|Ber- ge, der|Ber- ge sind auch|sein. und die Höh‘n,|_ die Höh‘n der|Ber- * * ge|
!>(! c2 B2!>)! | A2 z!p!!<(! A/>A/ | B/>B/!<)! _d2 d/>B/ |!>(! (B2 AG)!>)! | !fermata!A2 z || %84
w: sind auch|sein, und die|Höh‘n der Ber- ge sind|auch _ _|sein.|
[M:4/4] z8 |!p!!<(! A4 A4!<)! |!f!"^poco" A3 A A2 ^G2 | A4 z4 | z8 |!p!!<(! d4 d4!<)! | %90
w: |Be- tet,|be- tet an den|Herrn!||be- tet,|
!f!"^poco" d3 d d2 ^c2 | d4 z4 | z2!f! d2 d2 d2 |!>(! ^c4 c2!>)! z2 | z2 d2 d2 d2 | %95
w: be- tet an den|Herrn;|denn sei- ne|Grö- ße,|denn sei- ne|
!>(! d4 d2!>)! z2 | z2 =c2 c2 c2 |!>(! (c4 =B2 A2)!>)! | !fermata!=B4 z4 ||[K:C][M:2/2] z8 | z8 | %101
w: Grö- ße|ist un- aus-|sprech- * *|lich!|||
 z8 | z8 | z8 | z8 | z8 | z8 | z8 | z8 | z8 | G4 G2 G2 | c4 z2 B2 | e2 A2 d2 c2 | B2 A2 G2 B2 | %114
w: |||||||||Prei- set ihn|laut! von|nun an bis in|E- wig- keit, von|
 c2 ^G2 A2 B2 | (A2 c2 B2 A2 | G2 E2 A2) c2 | ^F4 z4 | z8 | z8 | z2 G2 A2 B2 | B4 ^A4 | B6 =A2 | %123
w: nun an bis in|E- * * *|* * * wig-|keit!|||von nun an|bis in|E- wig-|
 G6 B2 | A6 G2 | ^F6 A2 | B2 d2 G2 =f2 | e2 d2 c2 z2 | z8 |!f! G4 G2 G2 | c4 z2 A2 | d2 A2 d2 c2 | %132
w: keit, in|E- wig-|keit, von|nun an bis in|E- wig- keit!||Prei- set ihn|laut! von|nun an bis in|
 B2 A2 G2 z2 | z8 | z8 | z2 A2 d2 c2 | B2 B2 c2 d2 | G2!f! c2 c2 c2 |!sfz! e4 z2 e2 | %139
w: E- wig- keit,|||von nun an|bis in E- wig-|keit! Prei- set ihn|laut! von|
 e2 ^c2 d2 A2 | d2 ^c2 d2 A2 | G2 G2 c2 c2 | (c2 A2 B2) B2 | G4 z4 | z2!f! c2 c2 c2 | c4 z4 | %146
w: nun an bis in|E- wig- keit, von|nun an bis in|E- * * wig-|keit!|Prei- set ihn|laut!|
 z2 c2 c2 c2 | c2 ^c2 c2 c2 | d2 A2 B2 ^c2 | d2 e2 f2 A2 | d2 B2 c2 c2 | c8- | c6 c2 | c8- | c8- | %155
w: Prei- set ihn|laut! Prei- set ihn|laut! von nun an|bis in E- wig-|keit Prei- set ihn|laut|_ in|E-||
 (c2 A2 d2 c2 | B6) B2 | G4 z4 |!f! B8 | c4 z4 |!ff! B16 | G4 z4 |] %162
w: |* wig-|keit!|A-|men,|A-|men!|
V:3
!mf! E,2 | E,2 E,2 G,2 | G,4 E,2 | A,4 G,2 | G,2 G,2 G,2 | F,4 D,2 | G,4 G,2 | G,2 G,2 G,2 | %8
w: Ich|dan- ke dem|Herrn von|gan- zem|Her- zen und|rüh- me|sei- nen|hei- li- gen|
 G,2 G,2 z2 | z6 | z4 C2 | B,2 A,2 G,2 | C2 C,2 z2 | z6 | z4 A,2 | B,2 A,2 ^G,2 | %16
w: Na- men,||denn|er ist barm-|her- zig,||denn|er ist barm-|
 A,2 A,2!f!"^poco" A,2 | G,2 G,2 G,2 | A,2 A,2 A,2 |!>(! A,6!>)! | G,4!p! G,2 | !>!A,6 | A,4 A,2 | %23
w: her- zig, denn|er ist barm-|her- zig und|gnä-|dig, ge-|dul-|dig, ge-|
 !>!^G,6 | E,4 z2 |"^poco"!f! F,4 F,2 | (A,2 F,2) D,2 |!>(! E,6 | E,4!>)!!f! E,2 | E,2 E,2 G,2 | %30
w: dul-|dig|und von|gro- * ßer|Gü-|te. Ich|dan- ke dem|
 G,4 E,2 | A,4 G,2 | G,2 G,2 G,2 | F,4 D,2 | G,4 G,2 | G,2 G,2 G,2 | G,2 G,2!f! G,2 | %37
w: Herrn von|gan- zem|Her- zen und|rüh- me|sei- nen|hei- li- gen|Na- men, ich|
 ^G,2 G,2 G,2 | A,4 A,2 |"^cresc." A,2 A,2 A,2 | B,4 z2 | z4 C,2 | (C,2 D,2) ^D,2 |"^dim." ((E,6 | %44
w: dan- ke dem|Herrn, ich|dan- ke dem|Herrn|von|gan- * zem|Her-|
 D,4) F,2) | E,4!p! E,2 |!<(! F,2 F,2 F,2!<)! |!>(! !fermata!G,4!>)! z ||[K:F][M:2/4] z | %49
w: |zen. Ich|dan- ke dem|Herrn.||
 z"^dolce" F, A,A, |!>(! G,3!>)! F, | E,>E, E,E, | F,2 C, z | z2 z"^cresc." E,/>C,/ | D,>G, G,F, | %55
w: In sei- ner|Hand ist,|was die Er- de|brin- get;|und die|Höh‘n die Höh‘n der|
!f! E,>E,"^dim." D,F, | E,"^poco"!f!C C>C | ^F,D, E,F, | G,A, B,/A,/ G,/F,/ | E,E, F,G, | C, z z2 | %61
w: Ber- ge sind auch|sein. Sein ist das|Meer und er hat|es ge- macht, * und *|er hat es ge-|macht,|
 z D, G,F, | E,C, z2 | z2 z E,/^F,/ | G,3 A,/=B,/ | CG, z2 | z2 D,E, |!<(! D,2!<)! D, D,/E,/ | %68
w: und sei- ne|Hän- de,|und *|sei- ne *|Hän- de|das _|Trock- ne be- *|
!>(! F,2 E,!>)! z | z"^dolce" F, A,A, |!>(! G,3!>)! F, | E,>E, E,E, | F,2 C, z | z4 | %74
w: rei- tet.|In sei- ner|Hand ist,|was die Er- de|brin- get;||
 z"^cresc." G,/>D,/ _A,F, |!f! F,>A,"^dim." G,G, | F,2 z A,/>F,/ | B,!f!B, B,G, | %78
w: und die Höh‘n der|Ber- ge sind auch|sein, und die|Höh‘n, die Höh‘n der|
"^cresc." (G,2 F,)B, |!>(! A,2 G,2!>)! | F,!p!F,/>F,/!<(! F,2- | F,3!<)! F, |!>(! F,4!>)! | %83
w: Ber- * ge|sind auch|sein, und die Höh‘n|_ sind|auch|
 !fermata!F,2 z ||[M:4/4]!p! F,4 F,4 |!<(! E,8!<)! |!f!"^poco" D,3 D, D,2 D,2 | E,4 z4 | %88
w: sein.|Be- tet|an,|be- tet an den|Herrn!|
!p! B,4 B,4 |!<(! A,8!<)! |!f!"^poco" G,3 G, G,2 G,2 | A,4 z4 | z2!f! A,2 A,2 A,2 | %93
w: be- tet|an,|be- tet an den|Herrn;|denn sei- ne|
!>(! B,4 B,2!>)! z2 | z2 A,2 A,2 A,2 |!>(! =B,4 B,2!>)! z2 | z2 A,2 A,2 A,2 | %97
w: Grö- ße,|denn sei- ne|Grö- ße|ist un- aus-|
!>(! (A,4 ^G,2 ^F,2)!>)! | !fermata!^G,4 z4 ||[K:C][M:2/2] C,4 C,2 C,2 | G,4 z2 E,2 | %101
w: sprech- * *|lich!|Prei- set ihn|laut! von|
 A,2 D,2 G,2 F,2 | E,2 D,2 C,2 z2 | z2 E,2 ^F,2 G,2 | G,4 ^F,4 | (G,6 =F,2 | E,2 A,4 B,2 | %107
w: nun an bis in|E- wig- keit,|von nun an|bis in|E- *||
 C2 G,2 C4- | C2 A,2 B,2 G,2 | A,4) B,4 | C6 z2 | z8 | z8 | z8 | z8 | z8 | E,4 E,2 E,2 | %117
w: ||* wig-|keit,||||||Prei- set ihn|
 B,4 z2 G,2 | C2 ^F,2 B,2 A,2 | (G,2 ^F,2 E,2) D,2 | C,4 z2 B,,2 | E,4 ^F,4 | B,,4 z4 | %123
w: laut! von|nun an bis in|E- * * wig-|keit, in|E- wig-|keit!|
!f! E,4 E,2 E,2 | A,4 z4 | D,4 D,2 D,2 | G,2 =F,2 E,2 D,2 | C,2 z2 z4 | z8 | z8 |!f! C,4 C,2 C,2 | %131
w: Prei- set ihn|laut!|prei- set ihn|laut in E- wig-|keit!|||Prei- set ihn|
 F,4 z2 D,2 | G,2 D,2 G,2 F,2 | E,2 D,2 C,2 E,2 | (A,2 G,2 F,2) E,2 | D,2 z2 z2 D,2 | %136
w: laut! von|nun an bis in|E- wig- keit, in|E- * * wig-|keit, in|
 (G,2 F,2 E,2) D,2 | C,2!f! C2 C2 C2 |!sfz! C4 z2 C2 | ^C2 A,2 A,2 A,2 | A,2 G,2 A,2 F,2 | %141
w: E- * * wig-|keit! Prei- set ihn|laut! von|nun an bis in|E- wig- keit, von|
 E,2 G,2 E,2 C,2 | G,6 F,2 | E,4 z4 | z2!f! A,2 A,2 A,2 | G,4 z4 | z2 A,2 A,2 A,2 | %147
w: nun an bis in|E- wig-|keit!|Prei- set ihn|laut!|Prei- set ihn|
 G,2 z2 z2 _B,2 | A,2 A,2 G,4 | F,8- | F,4 E,2 C,2 | A,8- | A,6 A,2 | G,8- | G,8- | G,8- | %156
w: laut! in|E- wig- keit.|Prei-|* set ihn|laut!|_ in|E-|||
 (G,2 D,2 G,2) F,2 | E,4 z4 |!f! G,8 | G,4 z4 |!ff! D,16 | E,4 z4 |] %162
w: * * * wig-|keit!|A-|men,|A-|men!|
V:4
!mf! C,2 | C,2 A,,2 G,,2 | C,4 C,2 | C,4 C,2 | F,2 E,2 C,2 | F,4 D,2 | G,4 F,2 | E,2 D,2 C,2 | %8
w: ||||||||
 G,2 G,,2 G,2 | B,2 A,2 G,2 | C2 C,2 z2 | z6 | z6 | z6 | z4 A,2 | ^G,2 ^F,2 E,2 | %16
w: * * denn|er ist barm-|her- zig,||||||
 A,2 A,,2!f!"^poco" A,2 | G,2 F,2 E,2 | D,2 D,2 D,2 |!>(! F,6!>)! | C,4!p! C,2 | !>!F,6 | %22
w: ||||||
 B,,4 B,,2 | !>!E,6 | A,,4 z2 |"^poco"!f! D,4 D,2 | B,,4 D,2 |!>(! E,6 | E,,4!>)!!f! C,2 | %29
w: |||||||
 C,2 A,,2 G,,2 | C,4 C,2 | C,4 C,2 | F,2 E,2 C,2 | F,4 D,2 | G,4 F,2 | E,2 D,2 C,2 | G,2 G,,2 z2 | %37
w: ||||||||
 z2 z2!f! E,2 | A,2 A,2 A,2 |"^cresc." D,4 D,2 | G,2 G,2 F,2 | (E,2 D,2) C,2 | F,,4 ^F,,2 | %43
w: ich|dan- ke dem|Herrn, ich|dan- ke dem|Herrn _ von|gan- zem|
"^dim." G,,6- | G,,6 | C,4!p! C,2 |!<(! C,2 C,2 C,2!<)! |!>(! !fermata!C,4!>)! z ||[K:F][M:2/4] z | %49
w: Her-||zen. Ich|dan- ke dem|Herrn.||
 z"^dolce" F,, F,F, |!>(! C,3!>)! C, | C,>C, C,C, | F,2 F,, z | z4 | z"^cresc." =B,,/>G,,/ C,F,, | %55
w: In sei- ner|Hand ist,|was die Er- de|brin- get;||und die Höh‘n der|
!f! G,,>G,,"^dim." G,,G,, | C,2 z2 | z4 | z4 | z!f!"^poco" C, C,/B,,/A,,/G,,/ | A,,F,, G,,A,, | %61
w: Ber- ge sind auch|sein.|||er hat _ es ge-|macht, und sei- ne|
 B,,G,, z2 | z C, F,E, | D,C, B,,A,, | G,,G,/F,/ E,D,/D,/ | C,C,/C,/ D,E, | F,^C, D,A,,/A,,/ | %67
w: Hän- de,|und sei- ne,|sei- ne Hän- de|ha- ben das Trock- ne be-|rei- tet, und sei- ne|Hän- de ha- ben das|
!<(! B,,2!<)! B,,B,, |!>(! A,,2 A,,!>)! z | z"^dolce" F,, F,F, |!>(! C,3!>)! C, | C,>C, C,C, | %72
w: Trock- ne be-|rei- tet.|In sei- ner|Hand ist,|was die Er- de|
 F,2 F,, z | z2 z"^cresc." D,/>A,,/ | (B,,2 =B,,)D, |!f! C,>C,"^dim." C,C, | (D,2 C,2 | %77
w: brin- get;|und die|Höh‘n _ der|Ber- ge sind auch|sein, _|
 B,,2) z!f! B,,/>G,,/ |"^cresc." C,^C, D,B,, |!>(! =C,2 C,2!>)! | F,,!p!F,,/>F,,/!<(! F,2- | %81
w: _ und die|Höh‘n der Ber- ge|sind auch|sein, und die Höh‘n|
 F,3!<)! F,, |!>(! F,,4!>)! | !fermata!F,,2 z ||[M:4/4]!p! D,4 D,4 |!<(! C,8!<)! | %86
w: _ sind|auch|sein.|Be- tet|an,|
!f!"^poco" B,,3 B,, B,,2 B,,2 | A,,4 z4 |!p! G,4 G,4 |!<(! F,8!<)! |!f!"^poco" _E,3 E, E,2 E,2 | %91
w: be- tet an den|Herrn!|be- tet|an,|be- tet an den|
 D,4 z4 | z2!f! D,2 D,2 D,2 |!>(! G,4 G,2!>)! z2 | z2 F,2 F,2 F,2 |!>(! E,4 E,2!>)! z2 | %96
w: Herrn;|denn sei- ne|Grö- ße,|denn sei- ne|Grö- ße|
 z2 F,2 F,2 F,2 |!>(! E,8!>)! | !fermata![E,,E,]4 z4 ||[K:C][M:2/2] z8 | z8 | z8 | z8 | z8 | z8 | %105
w: ist un- aus-|sprech-|lich!|||||||
 z8 | z8 | C,4 C,2 C,2 | G,4 z2 E,2 | A,2 D,2 G,2 F,2 | E,2 D,2 C,2 B,,2 | A,,4 D,2 E,2 | C,4 D,4 | %113
w: ||Prei- set ihn|laut! von|nun an bis in|E- wig- keit, von|nun an, von|nun an|
 E,6 D,2 | (C,2 B,,2 A,,2 =G,,2 | ^F,,4) B,,4 | E,,4 C,4 | B,,2 ^C,2 ^D,2 E,2 | E,4 ^D,4 | E,4 z4 | %120
w: bis in|E- * * *|* wig-|keit, von|nun an bis in|E- wig-|keit|
 z8 | z8 |!f! B,,4 B,,2 B,,2 | E,4 z4 | A,,4 A,,2 A,,2 | D,4 z4 | G,,4 G,,2 G,,2 | C,4 z2 A,,2 | %128
w: ||Prei- set ihn|laut!|prei- set ihn|laut,|prei- set ihn|laut! von|
 D,2 A,,2 D,2 C,2 | B,,2 A,,2 G,,2 z2 | z8 | z8 | z8 | z2 G,,2 C,2 B,,2 | A,,6 A,,2 | %135
w: nun an bis in|E- wig- keit,||||in E- wig-|keit, von|
 D,2 C,2 B,,2 A,,2 | (G,,4 A,,2) B,,2 | C,2!f! C,2 C,2 C,2 |!sfz! _B,4 z2 B,2 | A,2 G,2 F,2 E,2 | %140
w: nun an bis in|E- * wig-|keit! Prei- set ihn|laut! von|nun an bis in|
 D,2 E,2 F,2 F,,2 | G,,2 G,2 E,2 C,2 | G,6 G,,2 | C,2!f! C,2 C,2 C,2 | C8- | C2 C,2 C,2 C,2 | C8- | %147
w: E- wig- keit, von|nun an bis in|E- wig-|keit! Prei- set ihn|laut!|_ Prei- set ihn|laut!|
 C2 _B,2 A,2 G,2 | F,4 E,4 | D,4 C,4 | B,,2 G,,2 E,2 C,2 | F,8- | F,6 F,,2 | G,,2 G,2 F,2 E,2 | %154
w: _ Prei- set ihn|laut in|E- wig-|keit. Prei- set ihn|laut!|_ von|nun an bis in|
 D,2 F,2 E,2 C,2 | G,8 | G,,8 | C,4 z4 |!f! G,8 | C,4 z4 |!ff! G,,16 | C,4 z4 |] %162
w: E- wig- keit, in|E-|wig-|keit!|A-|men,|A-|men!|

